icons/striker.svg

<svg xmlns="http://www.w3.org/2000/svg" viewBox="0 0 350 350"><defs><mask id="striker-__a"><path fill="#fff" d="M0 0h350v350H0z"/><path d="M115 73c31-15 84-16 118 2l11 9 3 13c-43-31-102-32-145-4l1-12Zm-25 55c55 8 111 9 165 0l1 14c-55 7-112 6-168-1Zm15 34h135v26c0 15-17 36-39 39-4-10-16-16-26-20-10 4-22 10-26 20-22-3-39-24-44-39Zm133 81-40 5v4l41-4Z"/><path d="M181 250q0-7 7-7h5q7 0 7 7t-7 7h-5q-7 0-7-7M148 51c-17 39-23 71-23 112l4 55c0 21 0 26 6 35 3 6 5 14 6 22 0-8-2-16-5-23-5-9-5-13-5-33l-4-56c0-42 6-72 23-112Zm54 1c17 39 23 71 23 112l-1 52c0 21 0 26-6 35-3 6-5 14-6 19 0-5 2-13 5-20 5-9 5-13 5-33l1-53c0-42-6-72-23-112Z"/></mask></defs><path d="M45 45h260v260H45z" opacity=".4"/><path d="M71 71h208v97l-28-2 28 8v27l-54 3 54 5v70H71V179l40-19-40 10Z"/><path fill="#ff8e2d" d="m54 117-6-13 1-4h9l3 3 5-1 5 5h4l5 5 14 5-5 37-52-23 1-3 11 3-9-6 6-14Zm3-75 13 8 16 20 5-7 20 15-14 20-9-3 7 7-3 10-9-4-8-7-6-6-9-3-7-2-5-6-10-4 5-10 4 1-3-5 3-5 13 6-12-11Zm171 25 11-14h17l-5 6 10-4 4 4-27 22Zm12 15 41-30 10-2-6 8 16-10 6 4 2 4-23 16 21-8 9 15-10 9 10-4 1 1 1 3-64 39-8-36 12-5-13 2Zm15 49 46-25 2 9-16 7 16-3 2 10 1 7 1 4-6 2h-6l-5 4h-8l-4 1h-6l-14 11 1-15 13-6-14 2Zm-9 78 34 14 15 4 20 9-3 6-15-5 10 10-5 4-3 5-1 4-27-10 23 14v4l-2 4h-10l-21-14-36-11 8-22 24 10-8-9-12-4Zm1 49 9 3 56 35-7 2-4 1-2 3-18-7 3 5-4 1-5 4-3-4-7 1-1-2-25-16Zm-139 26-9 11-15 8-16 8 9-22-8 9-6 1-5 1-1 1h-5l-1-3 6-8-6 2-2-3-1-7 26-18 29-17-2 21-18 9 18-4Zm2-47-18 6-12 9-6 7H61l-3-8 17-11-19 8-9-15-9-12 17-2 17-12 31-11Z"/><path d="M175 43c56 1 83 45 85 86 10 48 5 68-18 102v10c13 3 13 31 2 47-8 10-37 19-69 20-32-1-61-10-70-19-13-9-13-44-1-48v-11c-18-33-28-48-18-102 5-41 28-84 89-85"/><path fill="#fff" d="M175 48c49 0 78 43 80 94 7 39 3 53-18 85v16c0 11-41 43-60 43l-2 20-2-20c-25-1-65-31-66-43v-17c-20-33-22-53-18-85 6-43 27-93 86-93" mask="url(#striker-__a)"/><path fill="#fff" d="M168 304c-24-3-48-10-63-20-7-13-8-25-1-35 9 14 39 35 63 41Zm14 0c23-3 47-10 58-20 7-7 9-28 2-35-8 13-38 35-59 41Z"/></svg>

<svg
  xmlns="http://www.w3.org/2000/svg"
  width="350"
  height="350"
  viewBox="0 0 350 350"
>
  <defs>
    <mask id="mask">
      <rect fill="white" x="0" y="0" width="350" height="350" />
      <path
        fill="black"
        d="M115 73C146 58 199 57 233 75L244 84 247 97C204 66 145 65 102 93L103 81Z"
      />
      <path
        fill="black"
        d="M90 128C145 136 201 137 255 128L256 142C201 149 144 148 88 141Z"
      />
      <path
        fill="black"
        d="M105 162H240V188C240 203 223 224 201 227 197 217 185 211 175 207 165 211 153 217 149 227 127 224 110 203 105 188Z"
      />
      <path fill="black" d="M238 243 198 248 198 252 239 248Z" />
      <path fill="black" d="M181 250q0-7 7-7h5q7 0 7 7 0 7-7 7h-5q-7 0-7-7Z" />
      <path
        fill="black"
        d="M148 51C131 90 125 122 125 163L129 218C129 239 129 244 135 253 138 259 140 267 141 275 141 267 139 259 136 252 131 243 131 239 131 219L127 163C127 121 133 91 150 51Z"
      />
      <path
        fill="black"
        d="M202 52C219 91 225 123 225 164L224 216C224 237 224 242 218 251 215 257 213 265 212 270 212 265 214 257 217 250 222 241 222 237 222 217L223 164c0-42-6-72-23-112Z"
      />
    </mask>
  </defs>
  <rect x="45" y="45" width="260" height="260" opacity="0.4" />
  <path
    d="M71 71H279V168L251 166 279 174V201L225 204 279 209V279H71V179L111 160 71 170Z"
  />
  <g id="planks" fill="#ff8e2d">
    <path
      d="M54 117 48 104 49 100 58 100 61 103 66 102 71 107 75 107 80 112 94 117 89 154 37 131 38 128 49 131 40 125 46 111Z"
    />
    <path
      d="M57 42 70 50 86 70 91 63 111 78 97 98 88 95 95 102 92 112 83 108 75 101 69 95 60 92 53 90 48 84 38 80 43 70 47 71 44 66 47 61 60 67 48 56Z"
    />
    <path d="M228 67 239 53 256 53 251 59 261 55 265 59 238 81Z" />
    <path
      d="M240 82 281 52 291 50 285 58 301 48 307 52 309 56 286 72 307 64 316 79 306 88 316 84 317 85 318 88 254 127 246 91 258 86 245 88Z"
    />
    <path
      d="M255 131 301 106 303 115 287 122 303 119 305 129 306 136 307 140 301 142 295 142 290 146 282 146 278 147 272 147 258 158 259 143 272 137 258 139Z"
    />
    <path
      d="M246 209 280 223 295 227 315 236 312 242 297 237 307 247 302 251 299 256 298 260 271 250 294 264 294 268 292 272 282 272 261 258 225 247 233 225 257 235 249 226 237 222Z"
    />
    <path
      d="M247 258 256 261 312 296 305 298 301 299 299 302 281 295 284 300 280 301 275 305 272 301 265 302 264 300 239 284Z"
    />
    <path
      d="M108 284 99 295 84 303 68 311 77 289 69 298 63 299 58 300 57 301 52 301 51 298 57 290 51 292 49 289 48 282 74 264 103 247 101 268 83 277 101 273Z"
    />
    <path
      d="M110 237 92 243 80 252 74 259 61 259 58 251 75 240 56 248 47 233 38 221 55 219 72 207 103 196Z"
    />
  </g>
  <g id="head">
    <path
      d="M175 43C231 44 258 88 260 129 270 177 265 197 242 231V241C255 244 255 272 244 288 236 298 207 307 175 308 143 307 114 298 105 289 92 280 92 245 104 241V230C86 197 76 182 86 128 91 87 114 44 175 43Z"
    />
    <path
      fill="#ffffff"
      mask="url(#mask)"
      d="M175 48C224 48 253 91 255 142 262 181 258 195 237 227V243C237 254 196 286 177 286L175 306 173 286C148 285 108 255 107 243V226C87 193 85 173 89 141 95 98 116 48 175 48Z"
    />
    <path
      fill="#ffffff"
      d="M168 304C144 301 120 294 105 284 98 271 97 259 104 249 113 263 143 284 167 290Z"
    />
    <path
      fill="#ffffff"
      d="M182 304C205 301 229 294 240 284 247 277 249 256 242 249 234 262 204 284 183 290Z"
    />
    <path d="" />
    <path d="" />
    <path d="" />
    <path d="" />
  </g>
  <path d="" />
  <path d="" />
  <path d="" />
  <path d="" />
  <path d="" />
  <path d="" />
</svg>
